packages/assets/application-icons/06.Export.svg

<?xml version="1.0" encoding="UTF-8"?>
<svg width="24px" height="24px" viewBox="0 0 24 24" version="1.1" xmlns="http://www.w3.org/2000/svg" xmlns:xlink="http://www.w3.org/1999/xlink">
    <title>06.Export</title>
    <g id="Page-1" stroke="none" stroke-width="1" fill="none" fill-rule="evenodd">
        <g id="Artboard" transform="translate(-235.000000, -101.000000)" fill="#000000" fill-rule="nonzero">
            <g id="06.Export" transform="translate(235.000000, 101.000000)">
                <path d="M5.42045954,15 C5.72392074,15 5.98944929,15.2280702 5.98944929,15.5263158 L5.98944929,15.5263158 L5.98944929,18 L18.0181022,18 L18.0181022,15.5263158 C18.0181022,15.245614 18.2646644,15 18.5870919,15 L18.5870919,15 L20.4490189,15 C20.7524801,15 21.0180087,15.245614 20.9990423,15.5263158 L20.9990423,15.5263158 L20.9990423,20.4736842 C20.9990423,20.754386 20.7524801,21 20.4300526,21 L20.4300526,21 L3.56898975,21 C3.26552855,21 3,20.7719298 3,20.4736842 L3,20.4736842 L3,15.5263158 C3,15.245614 3.24656222,15 3.56898975,15 L3.56898975,15 Z M12.547399,3.19915701 L17.0995591,8.51001054 C17.4030365,8.87038988 17.1564611,9.43940991 16.6822778,9.43940991 L13.8751124,9.43940991 L13.8751124,15.2244468 C13.8751124,15.5279241 13.628537,15.7934668 13.3060923,15.7934668 L10.9162082,15.7934668 C10.6127309,15.7934668 10.3471882,15.5468915 10.3471882,15.2244468 L10.3471882,9.43940991 L7.55899012,9.43940991 C7.08480677,9.43940991 6.81926409,8.87038988 7.14170877,8.51001054 L11.6938689,3.19915701 C11.9214769,2.93361433 12.319791,2.93361433 12.547399,3.19915701 Z" id="Export"></path>
            </g>
        </g>
    </g>
</svg>

<svg width="24" height="24" viewBox="0 0 24 24" xmlns="http://www.w3.org/2000/svg"><path d="M5.42 15c.304 0 .57.228.57.526V18h12.028v-2.474c0-.28.247-.526.57-.526h1.861c.303 0 .569.246.55.526v4.948c0 .28-.247.526-.569.526H3.57C3.266 21 3 20.772 3 20.474v-4.948c0-.28.247-.526.569-.526Zm7.127-11.8L17.1 8.51c.303.36.056.93-.418.93h-2.807v5.784a.57.57 0 0 1-.569.57h-2.39a.57.57 0 0 1-.569-.57V9.44H7.56c-.474 0-.74-.569-.417-.929l4.552-5.31a.557.557 0 0 1 .853 0Z" fill="#000" fill-rule="nonzero"/></svg>
